X: 34525
T: Ril Chois Claidigh
R: reel
M: 4/4
K: Adorian
|:EA,~A,2 EGFD|EA,~A,2 B,G,B,D|EA,~A,2 EEDC|DG,~G,2 B,G,B,D:|
(3EFG AB cBcA|GE (3EEE CEGC|(3EEG AB cBcA|BG (3GGG BGBd|
(3EFG AB (3cBc cA|GE (3EEE CEGE|A3F GFGE|DG, (3G,G,G, G2 FG||

